svgs/light/church.svg

<svg xmlns="http://www.w3.org/2000/svg" viewBox="0 0 640 512"><!--! Font Awesome Pro 6.6.0 by @fontawesome - https://fontawesome.com License - https://fontawesome.com/license (Commercial License) Copyright 2024 Fonticons, Inc. --><path d="M336 16c0-8.8-7.2-16-16-16s-16 7.2-16 16l0 32-40 0c-8.8 0-16 7.2-16 16s7.2 16 16 16l40 0 0 39.4-115.5 77c-17.8 11.9-28.5 31.9-28.5 53.3L160 480l-96 0c-17.7 0-32-14.3-32-32l0-69.9c0-10.9 5.5-21 14.6-26.9L128 298.6l0-38.1L29.2 324.4C11 336.2 0 356.4 0 378.1L0 448c0 35.3 28.7 64 64 64l120 0s0 0 0 0l72 0 32 0 64 0 32 0 72 0s0 0 0 0l120 0c35.3 0 64-28.7 64-64l0-69.9c0-21.7-11-41.9-29.2-53.7L512 260.5l0 38.1 81.4 52.7c9.1 5.9 14.6 16 14.6 26.9l0 69.9c0 17.7-14.3 32-32 32l-96 0 0-230.3c0-21.4-10.7-41.4-28.5-53.3L336 119.4 336 80l40 0c8.8 0 16-7.2 16-16s-7.2-16-16-16l-40 0 0-32zM448 480l-64 0 0-96c0-35.3-28.7-64-64-64s-64 28.7-64 64l0 96-64 0 0-230.3c0-10.7 5.3-20.7 14.2-26.6L320 147.2l113.8 75.8C442.7 229 448 239 448 249.7L448 480zm-96-96l0 96-64 0 0-96c0-17.7 14.3-32 32-32s32 14.3 32 32z"/></svg>

<svg xmlns="http://www.w3.org/2000/svg" viewBox="0 0 640 512"><!--! Font Awesome Pro 6.4.2 by @fontawesome - https://fontawesome.com License - https://fontawesome.com/license (Commercial License) Copyright 2023 Fonticons, Inc. --><path d="M336 16c0-8.8-7.2-16-16-16s-16 7.2-16 16V48H264c-8.8 0-16 7.2-16 16s7.2 16 16 16h40v39.4l-115.5 77c-17.8 11.9-28.5 31.9-28.5 53.3V480H64c-17.7 0-32-14.3-32-32V378.1c0-10.9 5.5-21 14.6-26.9L128 298.6V260.5L29.2 324.4C11 336.2 0 356.4 0 378.1V448c0 35.3 28.7 64 64 64H184v0h72 32 64 32 72v0H576c35.3 0 64-28.7 64-64V378.1c0-21.7-11-41.9-29.2-53.7L512 260.5v38.1l81.4 52.7c9.1 5.9 14.6 16 14.6 26.9V448c0 17.7-14.3 32-32 32H480V249.7c0-21.4-10.7-41.4-28.5-53.3L336 119.4V80h40c8.8 0 16-7.2 16-16s-7.2-16-16-16H336V16zM448 480H384V384c0-35.3-28.7-64-64-64s-64 28.7-64 64v96H192V249.7c0-10.7 5.3-20.7 14.2-26.6L320 147.2l113.8 75.8C442.7 229 448 239 448 249.7V480zm-96-96v96H288V384c0-17.7 14.3-32 32-32s32 14.3 32 32z"/></svg>
